packages/ffe-icons/icons/open/300/md/keyboard.svg

<svg xmlns="http://www.w3.org/2000/svg" height="24" viewBox="0 -960 960 960" width="24"><path d="M172.309-220.001q-30.308 0-51.308-21t-21-51.308v-375.382q0-30.308 21-51.308t51.308-21h615.382q30.308 0 51.308 21t21 51.308v375.382q0 30.308-21 51.308t-51.308 21H172.309Zm0-59.999h615.382q4.616 0 8.463-3.846 3.846-3.847 3.846-8.463v-375.382q0-4.616-3.846-8.463-3.847-3.846-8.463-3.846H172.309q-4.616 0-8.463 3.846-3.846 3.847-3.846 8.463v375.382q0 4.616 3.846 8.463 3.847 3.846 8.463 3.846ZM360-324.616h240q14.692 0 25.038-10.153 10.346-10.154 10.346-25.231 0-14.692-10.346-25.038T600-395.384H360q-14.692 0-25.038 10.153-10.346 10.154-10.346 25.231 0 14.692 10.346 25.038T360-324.616ZM160-280V-680-280Zm80-284.616q14.692 0 25.038-10.346T275.384-600q0-14.692-10.346-25.038T240-635.384q-14.692 0-25.038 10.346T204.616-600q0 14.692 10.346 25.038T240-564.616Zm120 0q14.692 0 25.038-10.346T395.384-600q0-14.692-10.346-25.038T360-635.384q-14.692 0-25.038 10.346T324.616-600q0 14.692 10.346 25.038T360-564.616Zm120 0q14.692 0 25.038-10.346T515.384-600q0-14.692-10.346-25.038T480-635.384q-14.692 0-25.038 10.346T444.616-600q0 14.692 10.346 25.038T480-564.616Zm120 0q14.692 0 25.038-10.346T635.384-600q0-14.692-10.346-25.038T600-635.384q-14.692 0-25.038 10.346T564.616-600q0 14.692 10.346 25.038T600-564.616Zm120 0q14.692 0 25.038-10.346T755.384-600q0-14.692-10.346-25.038T720-635.384q-14.692 0-25.038 10.346T684.616-600q0 14.692 10.346 25.038T720-564.616Zm-480 120q14.692 0 25.038-10.346T275.384-480q0-14.692-10.346-25.038T240-515.384q-14.692 0-25.038 10.346T204.616-480q0 14.692 10.346 25.038T240-444.616Zm120 0q14.692 0 25.038-10.346T395.384-480q0-14.692-10.346-25.038T360-515.384q-14.692 0-25.038 10.346T324.616-480q0 14.692 10.346 25.038T360-444.616Zm120 0q14.692 0 25.038-10.346T515.384-480q0-14.692-10.346-25.038T480-515.384q-14.692 0-25.038 10.346T444.616-480q0 14.692 10.346 25.038T480-444.616Zm120 0q14.692 0 25.038-10.346T635.384-480q0-14.692-10.346-25.038T600-515.384q-14.692 0-25.038 10.346T564.616-480q0 14.692 10.346 25.038T600-444.616Zm120 0q14.692 0 25.038-10.346T755.384-480q0-14.692-10.346-25.038T720-515.384q-14.692 0-25.038 10.346T684.616-480q0 14.692 10.346 25.038T720-444.616Z"/></svg>

<svg xmlns="http://www.w3.org/2000/svg" height="24" viewBox="0 -960 960 960" width="24"><path d="M172.31-220Q142-220 121-241q-21-21-21-51.31v-375.38Q100-698 121-719q21-21 51.31-21h615.38Q818-740 839-719q21 21 21 51.31v375.38Q860-262 839-241q-21 21-51.31 21H172.31Zm0-60h615.38q4.62 0 8.46-3.85 3.85-3.84 3.85-8.46v-375.38q0-4.62-3.85-8.46-3.84-3.85-8.46-3.85H172.31q-4.62 0-8.46 3.85-3.85 3.84-3.85 8.46v375.38q0 4.62 3.85 8.46 3.84 3.85 8.46 3.85ZM360-324.62h240q14.69 0 25.04-10.15 10.34-10.15 10.34-25.23 0-14.69-10.34-25.04-10.35-10.34-25.04-10.34H360q-14.69 0-25.04 10.15-10.34 10.15-10.34 25.23 0 14.69 10.34 25.04 10.35 10.34 25.04 10.34ZM160-280v-400 400Zm80-284.62q14.69 0 25.04-10.34 10.34-10.35 10.34-25.04t-10.34-25.04q-10.35-10.34-25.04-10.34t-25.04 10.34q-10.34 10.35-10.34 25.04t10.34 25.04q10.35 10.34 25.04 10.34Zm120 0q14.69 0 25.04-10.34 10.34-10.35 10.34-25.04t-10.34-25.04q-10.35-10.34-25.04-10.34t-25.04 10.34q-10.34 10.35-10.34 25.04t10.34 25.04q10.35 10.34 25.04 10.34Zm120 0q14.69 0 25.04-10.34 10.34-10.35 10.34-25.04t-10.34-25.04q-10.35-10.34-25.04-10.34t-25.04 10.34q-10.34 10.35-10.34 25.04t10.34 25.04q10.35 10.34 25.04 10.34Zm120 0q14.69 0 25.04-10.34 10.34-10.35 10.34-25.04t-10.34-25.04q-10.35-10.34-25.04-10.34t-25.04 10.34q-10.34 10.35-10.34 25.04t10.34 25.04q10.35 10.34 25.04 10.34Zm120 0q14.69 0 25.04-10.34 10.34-10.35 10.34-25.04t-10.34-25.04q-10.35-10.34-25.04-10.34t-25.04 10.34q-10.34 10.35-10.34 25.04t10.34 25.04q10.35 10.34 25.04 10.34Zm-480 120q14.69 0 25.04-10.34 10.34-10.35 10.34-25.04t-10.34-25.04q-10.35-10.34-25.04-10.34t-25.04 10.34q-10.34 10.35-10.34 25.04t10.34 25.04q10.35 10.34 25.04 10.34Zm120 0q14.69 0 25.04-10.34 10.34-10.35 10.34-25.04t-10.34-25.04q-10.35-10.34-25.04-10.34t-25.04 10.34q-10.34 10.35-10.34 25.04t10.34 25.04q10.35 10.34 25.04 10.34Zm120 0q14.69 0 25.04-10.34 10.34-10.35 10.34-25.04t-10.34-25.04q-10.35-10.34-25.04-10.34t-25.04 10.34q-10.34 10.35-10.34 25.04t10.34 25.04q10.35 10.34 25.04 10.34Zm120 0q14.69 0 25.04-10.34 10.34-10.35 10.34-25.04t-10.34-25.04q-10.35-10.34-25.04-10.34t-25.04 10.34q-10.34 10.35-10.34 25.04t10.34 25.04q10.35 10.34 25.04 10.34Zm120 0q14.69 0 25.04-10.34 10.34-10.35 10.34-25.04t-10.34-25.04q-10.35-10.34-25.04-10.34t-25.04 10.34q-10.34 10.35-10.34 25.04t10.34 25.04q10.35 10.34 25.04 10.34Z"/></svg>
